X: 3
T: Down The Back Lane
R: jig
M: 6/8
L: 1/8
K: Dmix
ABG A2 G|FDE F2 d|cAA BAG|Ade fed|cAG ABG|FDE F2 G|Add fed|e^cA ~G3:||Add fed|^cAB =cAG|Add fed|e^cA ~G3|Add fed|^cAB ^cde|fag efd|e^cA ~G3:||


Tune 1496	Setting 14884

